svg/fluentui-system-icons/ic_fluent_window_play_20_regular.svg

<svg width="20" height="20" viewBox="0 0 20 20" fill="none" xmlns="http://www.w3.org/2000/svg">
<path d="M17 5.5C17 4.11929 15.8807 3 14.5 3H5.5C4.11929 3 3 4.11929 3 5.5V14.5C3 15.8807 4.11929 17 5.5 17H9.59971C9.43777 16.6832 9.30564 16.3486 9.20703 16H5.5C4.67157 16 4 15.3284 4 14.5V7H16V9.20703C16.3486 9.30564 16.6832 9.43777 17 9.59971V5.5ZM5.5 4H14.5C15.3284 4 16 4.67157 16 5.5V6H4V5.5C4 4.67157 4.67157 4 5.5 4ZM19 14.5C19 16.9853 16.9853 19 14.5 19C12.0147 19 10 16.9853 10 14.5C10 12.0147 12.0147 10 14.5 10C16.9853 10 19 12.0147 19 14.5ZM16.7133 14.0629L13.7428 12.4127C13.4096 12.2275 13 12.4685 13 12.8498L13 16.1502C13 16.5315 13.4096 16.7725 13.7428 16.5873L16.7133 14.9371C17.0562 14.7466 17.0562 14.2534 16.7133 14.0629Z" fill="#212121"/>
</svg>

<svg xmlns="http://www.w3.org/2000/svg" width="20" height="20"><path d="M17 5.5A2.5 2.5 0 0 0 14.5 3h-9A2.5 2.5 0 0 0 3 5.5v9A2.5 2.5 0 0 0 5.5 17h4.1a5.465 5.465 0 0 1-.393-1H5.5A1.5 1.5 0 0 1 4 14.5V7h12v2.207c.349.099.683.23 1 .393V5.5ZM5.5 4h9A1.5 1.5 0 0 1 16 5.5V6H4v-.5A1.5 1.5 0 0 1 5.5 4ZM19 14.5a4.5 4.5 0 1 1-9 0 4.5 4.5 0 0 1 9 0Zm-2.287-.437-2.97-1.65a.5.5 0 0 0-.743.437v3.3a.5.5 0 0 0 .743.437l2.97-1.65a.5.5 0 0 0 0-.874Z"/></svg>
